X: 10653
T: The ISLE OF SKYE
C:
N: AKA Prince Charlie's Welcome to the Isle of Skye
N: Similar to Planxty George Brabazon (O'Carolan)
%R: reel
B: Elias Howe "The Musician's Companion" Part 1 1842 p.65 #3
S: http://imslp.org/wiki/The_Musician's_Companion_(Howe,_Elias)
Z: 2015 John Chambers <jc:trillian.mit.edu>
M: C|
L: 1/8
K: D
% - - - - - - - - - - - - - - - - - - - - - - - - -
(dB) |\
A2D2 GFED | A2D2 GFED | B2E2 EFGE | B2E2 EFGE |\
F2DF A2FA | AdcB A2GF | GEFD EFGE | F2D2 D2 :|
|: (ef) |\
f2d2 e2(dc) | F2A2 BAGA | B2E2 EFGE | B2E2 EFGE |\
F2DF A2FA   | AdcB A2GF | GEFD EFGE | F2D2 D2 :|
|: (dB) |\
ADAD GFED | ADAD GFED | BEBE EFGE | BEBE EFGE |\
F2DF A2FA | AdcB A2GF | GEFD EFGE | F2D2 D2 :|
|: (ag) |\
f2d2 fgag | f2d2 efge | defg abag | f2d2 d2de |\
fdfd ecec | dcBA BAGF | GEFD EFGE | F2D2 D2 :|
% - - - - - - - - - - - - - - - - - - - - - - - - -


